pype/resources/ftrack/action_icons/SyncHierarchicalAttrs.svg

<?xml version="1.0" ?>
<svg enable-background="new 0 0 512 512" id="Layer_1" version="1.1" viewBox="0 0 512 512" xml:space="preserve" xmlns="http://www.w3.org/2000/svg" xmlns:xlink="http://www.w3.org/1999/xlink">
    <g transform="scale(1.5)">
        <g transform="translate(-78, -84)">
            <path d="M360.2250671,330.9226685v-37.9413452h-91.2255859v-46.6655884   c25.976532-2.5151978,46.2854309-24.3957367,46.2854309-51.0314636C315.2849121,166.9605255,292.3237305,144,264,144   s-51.2848053,22.9605255-51.2848053,51.2842712c0,26.6357269,20.3088074,48.5162659,46.2842865,51.0314636v46.6655884h-91.2256165   v37.9413452h-21.5375977V384h53.0762634v-53.0773315h-21.5386658v-27.9413452h81.2256165v27.9413452h-21.5376129V384h53.0763702   v-53.0773315h-21.5387573v-27.9413452h81.2255859v27.9413452H328.687561V384h53.0761719v-53.0773315H360.2250671z" opacity="0.3"/>
            <path d="M352.2250671,322.9226685v-37.9413452h-91.2255859v-46.6655884   c25.976532-2.5151978,46.2854309-24.3957367,46.2854309-51.0314636C307.2849121,158.9605255,284.3237305,136,256,136   s-51.2848053,22.9605255-51.2848053,51.2842712c0,26.6357269,20.3088074,48.5162659,46.2842712,51.0314636v46.6655884h-91.2256012   v37.9413452h-21.5375977V376h53.0762634v-53.0773315h-21.5386658v-27.9413452h81.2256012v27.9413452h-21.5375977V376h53.0763702   v-53.0773315h-21.5387573v-27.9413452h81.2255859v27.9413452H320.687561V376h53.0761719v-53.0773315H352.2250671z" fill="#FFFFFF"/>
        </g>
    </g>
</svg>

<?xml version="1.0" encoding="UTF-8" standalone="no"?>
<!DOCTYPE svg PUBLIC "-//W3C//DTD SVG 1.1//EN" "http://www.w3.org/Graphics/SVG/1.1/DTD/svg11.dtd">
<svg width="100%" height="100%" viewBox="0 0 512 512" version="1.1" xmlns="http://www.w3.org/2000/svg" xmlns:xlink="http://www.w3.org/1999/xlink" xml:space="preserve" xmlns:serif="http://www.serif.com/" style="fill-rule:evenodd;clip-rule:evenodd;stroke-linejoin:round;stroke-miterlimit:2;">
    <g transform="matrix(1.5,0,0,1.5,0,0)">
        <g transform="matrix(0.666667,0,0,0.666667,0,0)">
            <path d="M256,469.334C138.369,469.334 42.667,373.631 42.667,256.001C42.667,138.369 138.369,42.667 256,42.667C373.636,42.667 469.333,138.369 469.333,256.001C469.333,373.631 373.636,469.334 256,469.334Z" style="fill:rgb(0,198,89);fill-rule:nonzero;"/>
        </g>
        <g transform="matrix(0.666667,0,0,0.666667,0,0)">
            <circle cx="256" cy="256" r="256" style="fill:rgb(145,145,145);"/>
        </g>
        <g transform="matrix(0.871336,0,0,0.88172,-56.2139,-61.914)">
            <path d="M360.225,330.923L360.225,292.981L268.999,292.981L268.999,246.316C294.976,243.801 315.285,221.92 315.285,195.284C315.285,166.961 292.324,144 264,144C235.676,144 212.715,166.961 212.715,195.284C212.715,221.92 233.024,243.801 258.999,246.316L258.999,292.981L167.774,292.981L167.774,330.923L146.236,330.923L146.236,384L199.313,384L199.313,330.923L177.774,330.923L177.774,302.981L258.999,302.981L258.999,330.923L237.462,330.923L237.462,384L290.538,384L290.538,330.923L268.999,330.923L268.999,302.981L350.225,302.981L350.225,330.923L328.688,330.923L328.688,384L381.764,384L381.764,330.923L360.225,330.923Z" style="fill-opacity:0.3;fill-rule:nonzero;"/>
            <path d="M352.225,322.923L352.225,284.981L260.999,284.981L260.999,238.316C286.976,235.801 307.285,213.92 307.285,187.284C307.285,158.961 284.324,136 256,136C227.676,136 204.715,158.961 204.715,187.284C204.715,213.92 225.024,235.801 250.999,238.316L250.999,284.981L159.774,284.981L159.774,322.923L138.236,322.923L138.236,376L191.313,376L191.313,322.923L169.774,322.923L169.774,294.981L250.999,294.981L250.999,322.923L229.462,322.923L229.462,376L282.538,376L282.538,322.923L260.999,322.923L260.999,294.981L342.225,294.981L342.225,322.923L320.688,322.923L320.688,376L373.764,376L373.764,322.923L352.225,322.923Z" style="fill:white;fill-rule:nonzero;"/>
        </g>
    </g>
</svg>
